packages/bezier-icons/icons/star-filled.svg

<svg width="24" height="24" viewBox="0 0 24 24" fill="none" xmlns="http://www.w3.org/2000/svg">
<path fill-rule="evenodd" clip-rule="evenodd" d="M12.0002 17.7598L16.7852 21.2358C17.8922 22.0398 19.3802 20.9578 18.9582 19.6568L17.1302 14.0318L21.9152 10.5558C23.0212 9.75177 22.4532 8.00077 21.0852 8.00077H15.1712L13.3432 2.37577C12.9202 1.07477 11.0802 1.07477 10.6572 2.37577L8.82921 8.00077H2.91521C1.54721 8.00077 0.978212 9.75177 2.08421 10.5558L6.86921 14.0318L5.04221 19.6568C4.61921 20.9578 6.10821 22.0398 7.21521 21.2358L12.0002 17.7598Z" fill="#313234"/>
</svg>

<svg xmlns="http://www.w3.org/2000/svg" width="24" height="24" fill="none" viewBox="0 0 24 24"><path fill="#313234" fill-rule="evenodd" d="m12 17.76 4.785 3.476c1.107.804 2.595-.278 2.173-1.58l-1.828-5.624 4.785-3.476c1.106-.804.538-2.555-.83-2.555h-5.914l-1.828-5.625c-.423-1.301-2.263-1.301-2.686 0L8.83 8H2.915c-1.368 0-1.937 1.75-.83 2.555l4.784 3.476-1.827 5.625c-.423 1.3 1.066 2.383 2.173 1.579z" clip-rule="evenodd"/></svg>
